X:0246
T:The Weazle.
M:6/8
L:1/8
Q:3/8=120
I: :: ::
Z:Jack Campin * www.campin.me.uk * 2009
K:G
GAG B2c|ded d2g|f2a A2c |BAB G3 |
GAG B2c|ded d2g|f2a A2^c|d3  d3:|
ded d2b|cdc c2a|BAG dcB |ADD D3 |
GAG B2c|ded d2g|dBG cAF |G3  G3:|

